src/assets/icon-export.svg

<svg xmlns="http://www.w3.org/2000/svg" width="24" height="24" viewBox="0 0 24 24">
  <g fill="none" transform="translate(5.00 0.00)">
    <g opacity=".5">
      <path stroke="currentColor" stroke-width="1.5" d="M9.28821017,0.75 C9.70291962,0.787569196 9.9999812,0.910674236 10.2124941,1.14200339 L10.2124941,1.14200339 L14.920528,6.26689446 C15.1324191,6.49754669 15.25,6.79934055 15.25,7.11254698 L15.25,7.11254698 L15.25,18 C15.25,18.345178 15.110089,18.657678 14.8838835,18.8838835 C14.657678,19.110089 14.345178,19.25 14,19.25 L14,19.25 L2,19.25 C1.65482203,19.25 1.34232203,19.110089 1.11611652,18.8838835 C0.889911016,18.657678 0.75,18.345178 0.75,18 L0.75,18 L0.75,2 C0.75,1.65482203 0.889911016,1.34232203 1.11611652,1.11611652 C1.34232203,0.889911016 1.65482203,0.75 2,0.75 L2,0.75 Z" />
      <path fill="currentColor" fill-rule="nonzero" d="M9.295,1.5 L9.43244683,1.50683423 L9.47578546,1.51966901 C9.52789052,1.54080158 9.60205976,1.58613153 9.6601773,1.6493949 L9.6601773,1.6493949 L10.607,2.68 L10.607,6.25 L13.887,6.25 L14.3682112,6.77428597 L14.4245598,6.84844396 C14.4735443,6.92719095 14.5,7.01858505 14.5,7.11254698 L14.5,7.11254698 L14.5,7.75 L9.85714286,7.75 C9.47744709,7.75 9.1636519,7.46784612 9.11398947,7.10177056 L9.10714286,7 L9.107,1.5 L9.295,1.5 Z" />
    </g>
  </g>
</svg>

<svg viewBox="0 0 24 24" xmlns="http://www.w3.org/2000/svg">
<g transform="translate(5)" fill="none">
<g opacity=".5">
<path d="m9.2882 0.75c0.41471 0.037569 0.71177 0.16067 0.92428 0.392l4.708 5.1249c0.21189 0.23065 0.32947 0.53245 0.32947 0.84565v10.887c0 0.34518-0.13991 0.65768-0.36612 0.88388s-0.53871 0.36612-0.88388 0.36612h-12c-0.34518 0-0.65768-0.13991-0.88388-0.36612-0.22621-0.22621-0.36612-0.53871-0.36612-0.88388v-16c0-0.34518 0.13991-0.65768 0.36612-0.88388 0.22621-0.22621 0.53871-0.36612 0.88388-0.36612z" stroke="currentColor" stroke-width="1.5"/>
<path d="m9.295 1.5 0.13745 0.0068342 0.043339 0.012835c0.052105 0.021133 0.12627 0.066463 0.18439 0.12973l0.94682 1.0306v3.57h3.28l0.48121 0.52429 0.056349 0.074158c0.048984 0.078747 0.07544 0.17014 0.07544 0.2641v0.63745h-4.6429c-0.3797 0-0.69349-0.28215-0.74315-0.64823l-0.0068466-0.10177-1.4286e-4 -5.5h0.188z" fill="currentColor"/>
</g>
</g>
</svg>
